src/img/icons/svg/fb.svg

<?xml version="1.0" encoding="UTF-8"?>
<svg width="12px" height="23px" viewBox="0 0 12 23" version="1.1" xmlns="http://www.w3.org/2000/svg" xmlns:xlink="http://www.w3.org/1999/xlink">
    <!-- Generator: Sketch 49.3 (51167) - http://www.bohemiancoding.com/sketch -->
    <title>Untitled</title>
    <desc>Created with Sketch.</desc>
    <defs></defs>
    <g id="Page-1" stroke="none" stroke-width="1" fill="none" fill-rule="evenodd">
        <g id="fb" fill="#828282" fill-rule="nonzero">
            <path d="M11.45,-5.42101086e-20 L8.59,-5.42101086e-20 C5.39,-5.42101086e-20 3.32,2.13 3.32,5.41 L3.32,7.91 L0.45,7.91 C0.201471863,7.91 3.04359188e-17,8.11147186 0,8.36 L0,12 C0.00543720823,12.2446143 0.205325301,12.4400604 0.45,12.44 L3.32,12.44 L3.32,21.57 C3.32,21.8185281 3.52147186,22.02 3.77,22.02 L7.51,22.02 C7.63967212,22.0317267 7.76806722,21.9867142 7.86203109,21.8965856 C7.95599496,21.806457 8.00631589,21.680048 8,21.55 L8,12.42 L11.35,12.42 C11.5946747,12.4200604 11.7945628,12.2246143 11.8,11.98 L11.8,8.36 C11.8027637,8.23982663 11.7562412,8.12375458 11.6712433,8.03875671 C11.5862454,7.95375884 11.4701734,7.90723629 11.35,7.91 L8,7.91 L8,5.79 C8,4.79 8.24,4.26 9.56,4.26 L11.49,4.26 C11.7346143,4.25456279 11.9300604,4.0546747 11.93,3.81 L11.93,0.45 C11.9274264,0.326199182 11.8750491,0.208664328 11.7847123,0.123973563 C11.6943755,0.0392827975 11.5737093,-0.0054105555 11.45,5.10659223e-17 Z" id="Shape"></path>
        </g>
    </g>
</svg>

<svg xmlns="http://www.w3.org/2000/svg" viewBox="0 0 11.89 22"><g data-name="Layer 2"><path d="M11.45 0H8.59c-3.2 0-5.27 2.13-5.27 5.41v2.5H.45a.45.45 0 0 0-.45.45V12a.45.45 0 0 0 .45.44h2.87v9.13a.45.45 0 0 0 .45.45h3.74a.45.45 0 0 0 .49-.47v-9.13h3.35a.45.45 0 0 0 .45-.44V8.36a.44.44 0 0 0-.45-.45H8V5.79c0-1 .24-1.53 1.56-1.53h1.93a.45.45 0 0 0 .44-.45V.45a.46.46 0 0 0-.48-.45z" fill="#828282" data-name="Layer 1"/></g></svg>
